atlases.vromfs.bin_u/gameuiskin/ww_battle_result_bg.svg

<?xml version="1.0" encoding="utf-8"?>
<!-- Generator: Adobe Illustrator 28.2.0, SVG Export Plug-In . SVG Version: 6.00 Build 0)  -->
<svg version="1.1" id="Layer_1" xmlns="http://www.w3.org/2000/svg" xmlns:xlink="http://www.w3.org/1999/xlink" x="0px" y="0px"
	 viewBox="0 0 24 30" style="enable-background:new 0 0 24 30;" xml:space="preserve">
<style type="text/css">
	.st0{fill:#13161B;}
	.st1{fill:#040406;}
	.st2{fill:#232C35;}
</style>
<g>
	<g>
		<path class="st0" d="M24,0v24H0V0H24z M12,30l6.5-5h-13L12,30z"/>
	</g>
	<path class="st1" d="M0,0v24h24V0H0z M23,23H1V1h22V23z"/>
	<path class="st2" d="M1,1v22h1h21V1H1z M22,22H2V2h20V22z"/>
</g>
</svg>

<?xml version="1.0" encoding="utf-8"?>
<svg width="24" height="24" viewBox="0 0 24 24" fill="none" xmlns="http://www.w3.org/2000/svg">
<path d="M24 0V24H0V0H24Z" fill="#13161B"/>
<path d="M0 0V24H24V0H0ZM23 23H1V1H23V23Z" fill="#040406"/>
<path d="M1 1V23H2H23V1H1ZM22 22H2V2H22V22Z" fill="#232C35"/>
</svg>
